Numix-Circle/48x48/apps/security-medium.svg

<svg xmlns="http://www.w3.org/2000/svg" xmlns:xlink="http://www.w3.org/1999/xlink" width="48" viewBox="0 0 13.546667 13.546667" height="48">
 <defs>
  <linearGradient id="0">
   <stop stop-color="#eaeaea"/>
   <stop offset="1" stop-color="#fafafa"/>
  </linearGradient>
  <linearGradient xlink:href="#0" id="1" gradientUnits="userSpaceOnUse" gradientTransform="matrix(1.10528,0,0,1.10528,-134.28255,-295.77052)" y1="279.1" x2="0" y2="268.33"/>
  <linearGradient id="2">
   <stop stop-color="#e24674"/>
   <stop offset="1" stop-color="#7f2641"/>
  </linearGradient>
  <linearGradient xlink:href="#2" id="3" x1="6.778" y1="3.487" x2="6.769" y2="10.518" gradientUnits="userSpaceOnUse" gradientTransform="matrix(3.7297966,0,0,3.4015747,-1.263157,-2.0344487e-6)"/>
 </defs>
 <rect height="12.982" rx="6.491" y="0.282" x="0.282" width="12.982" opacity="0.5" fill="#ffffff" fill-rule="evenodd"/>
 <rect height="11.853" rx="5.926" y="0.847" x="0.847" width="11.853" fill="url(#1)" fill-rule="evenodd"/>
 <path d="M 14.03125 12 C 13.978728 15.416736 13.981796 18.833259 14.03125 22.25 C 14.078511 25.541103 14.251574 28.1163 15.6875 30.125 C 17.416862 32.544693 20.293258 34.284325 24 36 C 27.70606 34.284325 30.583138 32.544349 32.3125 30.125 C 33.748098 28.116992 33.920637 25.541452 33.96875 22.25 C 34.018204 18.833259 34.021272 15.416736 33.96875 12 L 14.03125 12 z M 24 13 C 24.552285 13 25 13.447715 25 14 C 25 14.552285 24.552285 15 24 15 C 23.447715 15 23 14.552285 23 14 C 23 13.447715 23.447715 13 24 13 z M 24 17 C 24.552285 17 25 17.447715 25 18 C 25 18.552285 24.552285 19 24 19 C 23.447715 19 23 18.552285 23 18 C 23 17.447715 23.447715 17 24 17 z M 16 21 C 16.552285 21 17 21.447715 17 22 C 17 22.552285 16.552285 23 16 23 C 15.447715 23 15 22.552285 15 22 C 15 21.447715 15.447715 21 16 21 z M 20 21 C 20.552285 21 21 21.447715 21 22 C 21 22.552285 20.552285 23 20 23 C 19.447715 23 19 22.552285 19 22 C 19 21.447715 19.447715 21 20 21 z M 24 21 C 24.552285 21 25 21.447715 25 22 C 25 22.552285 24.552285 23 24 23 C 23.447715 23 23 22.552285 23 22 C 23 21.447715 23.447715 21 24 21 z M 28 21 C 28.552285 21 29 21.447715 29 22 C 29 22.552285 28.552285 23 28 23 C 27.447715 23 27 22.552285 27 22 C 27 21.447715 27.447715 21 28 21 z M 32 21 C 32.552285 21 33 21.447715 33 22 C 33 22.552285 32.552285 23 32 23 C 31.447715 23 31 22.552285 31 22 C 31 21.447715 31.447715 21 32 21 z M 24 25 C 24.552285 25 25 25.447715 25 26 C 25 26.552285 24.552285 27 24 27 C 23.447715 27 23 26.552285 23 26 C 23 25.447715 23.447715 25 24 25 z M 24 29 C 24.552285 29 25 29.447715 25 30 C 25 30.552285 24.552285 31 24 31 C 23.447715 31 23 30.552285 23 30 C 23 29.447715 23.447715 29 24 29 z M 24 33 C 24.552285 33 25 33.447715 25 34 C 25 34.552285 24.552285 35 24 35 C 23.447715 35 23 34.552285 23 34 C 23 33.447715 23.447715 33 24 33 z " transform="scale(0.28222223,0.28222223)" fill="url(#3)"/>
</svg>

<?xml version="1.0" encoding="UTF-8" standalone="no"?>
<svg
   xmlns:dc="http://purl.org/dc/elements/1.1/"
   xmlns:cc="http://creativecommons.org/ns#"
   xmlns:rdf="http://www.w3.org/1999/02/22-rdf-syntax-ns#"
   xmlns:svg="http://www.w3.org/2000/svg"
   xmlns="http://www.w3.org/2000/svg"
   xmlns:sodipodi="http://sodipodi.sourceforge.net/DTD/sodipodi-0.dtd"
   xmlns:inkscape="http://www.inkscape.org/namespaces/inkscape"
   viewBox="0 0 48 48"
   id="svg2"
   version="1.1"
   inkscape:version="0.48.4 r9939"
   width="100%"
   height="100%"
   sodipodi:docname="security-medium.svg">
  <metadata
     id="metadata78">
    <rdf:RDF>
      <cc:Work
         rdf:about="">
        <dc:format>image/svg+xml</dc:format>
        <dc:type
           rdf:resource="http://purl.org/dc/dcmitype/StillImage" />
      </cc:Work>
    </rdf:RDF>
  </metadata>
  <sodipodi:namedview
     pagecolor="#ffffff"
     bordercolor="#666666"
     borderopacity="1"
     objecttolerance="10"
     gridtolerance="10"
     guidetolerance="10"
     inkscape:pageopacity="0"
     inkscape:pageshadow="2"
     inkscape:window-width="640"
     inkscape:window-height="480"
     id="namedview76"
     showgrid="false"
     inkscape:zoom="4.9166667"
     inkscape:cx="24"
     inkscape:cy="22.372881"
     inkscape:window-x="0"
     inkscape:window-y="0"
     inkscape:window-maximized="0"
     inkscape:current-layer="svg2" />
  <defs
     id="defs4">
    <linearGradient
       id="1"
       gradientUnits="userSpaceOnUse"
       y1="15"
       x2="0"
       y2="11"
       gradientTransform="matrix(15.333333,0,0,11.5,414.99999,-125.5)">
      <stop
         id="stop7" />
      <stop
         offset="1"
         stop-opacity="0"
         id="stop9" />
    </linearGradient>
    <clipPath
       id="clipPath-831512096">
      <g
         transform="translate(0,-1004.3622)"
         id="g12">
        <path
           d="m -24 13 c 0 1.105 -0.672 2 -1.5 2 -0.828 0 -1.5 -0.895 -1.5 -2 0 -1.105 0.672 -2 1.5 -2 0.828 0 1.5 0.895 1.5 2 z"
           transform="matrix(15.333333,0,0,11.5,414.99999,878.8622)"
           fill="#1890d0"
           id="path14" />
      </g>
    </clipPath>
    <clipPath
       id="clipPath-842518566">
      <g
         transform="translate(0,-1004.3622)"
         id="g17">
        <path
           d="m -24 13 c 0 1.105 -0.672 2 -1.5 2 -0.828 0 -1.5 -0.895 -1.5 -2 0 -1.105 0.672 -2 1.5 -2 0.828 0 1.5 0.895 1.5 2 z"
           transform="matrix(15.333333,0,0,11.5,414.99999,878.8622)"
           fill="#1890d0"
           id="path19" />
      </g>
    </clipPath>
    <linearGradient
       id="linear0"
       gradientUnits="userSpaceOnUse"
       x1="6.778"
       y1="3.487"
       x2="6.769"
       y2="10.518"
       gradientTransform="matrix(3.729797,0,0,3.401575,-1.263157,-0.00000203445)">
      <stop
         stop-color="#e24573"
         stop-opacity="1"
         id="stop22" />
      <stop
         offset="1"
         stop-color="#7f2640"
         stop-opacity="1"
         id="stop24" />
    </linearGradient>
    <linearGradient
       id="linearGradient26"
       gradientUnits="userSpaceOnUse"
       x1="6.778"
       y1="3.487"
       x2="6.769"
       y2="10.518"
       gradientTransform="matrix(3.729797,0,0,3.401575,-1.263157,-0.00000203445)">
      <stop
         stop-color="#e24573"
         stop-opacity="1"
         id="stop28" />
      <stop
         offset="1"
         stop-color="#7f2640"
         stop-opacity="1"
         id="stop30" />
    </linearGradient>
    <linearGradient
       id="1-4"
       gradientUnits="userSpaceOnUse"
       y1="15"
       x2="0"
       y2="11"
       gradientTransform="matrix(15.333333,0,0,11.5,414.99999,-125.5)">
      <stop
         id="stop7-0" />
      <stop
         offset="1"
         stop-opacity="0"
         id="stop9-8" />
    </linearGradient>
  </defs>
  <g
     transform="translate(9.9999996e-7,0.0022)"
     id="g21">
    <g
       transform="translate(0,-1004.3622)"
       id="g23">
      <path
         style="opacity:0.05"
         inkscape:connector-curvature="0"
         d="m 25,1006.36 c -12.703,0 -23,10.298 -23,23 0,6.367 2.601,12.12 6.781,16.281 4.085,3.712 9.514,5.969 15.469,5.969 12.703,0 23,-10.297 23,-23 0,-5.954 -2.256,-11.384 -5.969,-15.469 -4.165,-4.181 -9.914,-6.781 -16.281,-6.781 z m 16.281,6.781 c 3.854,4.113 6.219,9.637 6.219,15.719 0,12.703 -10.297,23 -23,23 -6.081,0 -11.606,-2.364 -15.719,-6.219 4.16,4.144 9.883,6.719 16.219,6.719 12.703,0 23,-10.297 23,-23 0,-6.335 -2.575,-12.06 -6.719,-16.219 z"
         id="path25" />
      <path
         style="opacity:0.1"
         inkscape:connector-curvature="0"
         d="m 41.28,1013.14 c 3.712,4.085 5.969,9.514 5.969,15.469 0,12.703 -10.297,23 -23,23 -5.954,0 -11.384,-2.256 -15.469,-5.969 4.113,3.854 9.637,6.219 15.719,6.219 12.703,0 23,-10.297 23,-23 0,-6.081 -2.364,-11.606 -6.219,-15.719 z"
         id="path27" />
      <path
         style="opacity:0.2"
         inkscape:connector-curvature="0"
         transform="matrix(15.333333,0,0,11.5,415.24999,879.11222)"
         d="m -24,13 a 1.5,2 0 1 1 -3,0 1.5,2 0 1 1 3,0 z"
         id="path29" />
    </g>
  </g>
  <g
     transform="translate(9.9999996e-7,0.0022)"
     id="g31">
    <g
       transform="translate(0,-1004.3622)"
       id="g33">
      <path
         style="fill:#eeeeee"
         inkscape:connector-curvature="0"
         d="m -24,13 c 0,1.105 -0.672,2 -1.5,2 -0.828,0 -1.5,-0.895 -1.5,-2 0,-1.105 0.672,-2 1.5,-2 0.828,0 1.5,0.895 1.5,2 z"
         transform="matrix(15.333333,0,0,11.5,414.99999,878.8622)"
         id="path35" />
    </g>
  </g>
  <g
     transform="translate(9.9999996e-7,0.0022)"
     id="g37">
    <path
       style="opacity:0.15;fill:url(#1-4)"
       inkscape:connector-curvature="0"
       d="M 47,24 C 47,36.703 36.703,47 24,47 11.297,47 1,36.703 1,24 1,11.297 11.297,1 24,1 36.703,1 47,11.297 47,24 z"
       id="path39" />
  </g>
  <g
     transform="translate(9.9999996e-7,0.0022)"
     id="g69">
    <path
       style="opacity:0.1"
       inkscape:connector-curvature="0"
       d="m 40.03,7.531 c 3.712,4.084 5.969,9.514 5.969,15.469 0,12.703 -10.297,23 -23,23 C 17.045,46 11.615,43.744 7.53,40.031 11.708,44.322 17.54,47 23.999,47 c 12.703,0 23,-10.298 23,-23 0,-6.462 -2.677,-12.291 -6.969,-16.469 z"
       id="path71" />
  </g>
  <g
     id="g52">
    <g
       clip-path="url(#clipPath-831512096)"
       id="g54">
      <g
         transform="translate(0,1)"
         id="g56">
        <g
           opacity="0.1"
           id="g58">
          <g
             id="g60">
            <path
               d="m 14.03 12 c -0.055 3.418 -0.051 6.832 0 10.25 c 0.047 3.289 0.219 5.867 1.656 7.875 c 1.727 2.422 4.605 4.16 8.313 5.875 c 3.703 -1.715 6.582 -3.457 8.313 -5.875 c 1.434 -2.01 1.609 -4.586 1.656 -7.875 c 0.047 -3.418 0.051 -6.832 0 -10.25 m -9.969 1 c 0.551 0 1 0.449 1 1 c 0 0.551 -0.449 1 -1 1 c -0.555 0 -1 -0.449 -1 -1 c 0 -0.551 0.445 -1 1 -1 m 0 4 c 0.551 0 1 0.449 1 1 c 0 0.551 -0.449 1 -1 1 c -0.555 0 -1 -0.449 -1 -1 c 0 -0.551 0.445 -1 1 -1 m -8 4 c 0.551 0 1 0.449 1 1 c 0 0.551 -0.449 1 -1 1 c -0.555 0 -1 -0.449 -1 -1 c 0 -0.551 0.445 -1 1 -1 m 4 0 c 0.551 0 1 0.449 1 1 c 0 0.551 -0.449 1 -1 1 c -0.555 0 -1 -0.449 -1 -1 c 0 -0.551 0.445 -1 1 -1 m 4 0 c 0.551 0 1 0.449 1 1 c 0 0.551 -0.449 1 -1 1 c -0.555 0 -1 -0.449 -1 -1 c 0 -0.551 0.445 -1 1 -1 m 4 0 c 0.551 0 1 0.449 1 1 c 0 0.551 -0.449 1 -1 1 c -0.555 0 -1 -0.449 -1 -1 c 0 -0.551 0.445 -1 1 -1 m 4 0 c 0.551 0 1 0.449 1 1 c 0 0.551 -0.449 1 -1 1 c -0.555 0 -1 -0.449 -1 -1 c 0 -0.551 0.445 -1 1 -1 m -8 4 c 0.551 0 1 0.449 1 1 c 0 0.551 -0.449 1 -1 1 c -0.555 0 -1 -0.449 -1 -1 c 0 -0.551 0.445 -1 1 -1 m 0 4 c 0.551 0 1 0.449 1 1 c 0 0.551 -0.449 1 -1 1 c -0.555 0 -1 -0.449 -1 -1 c 0 -0.551 0.445 -1 1 -1 m 0 4 c 0.551 0 1 0.449 1 1 c 0 0.551 -0.449 1 -1 1 c -0.555 0 -1 -0.449 -1 -1 c 0 -0.551 0.445 -1 1 -1 m 0 0"
               fill="#000"
               stroke="none"
               fill-rule="nonzero"
               id="path62" />
          </g>
        </g>
      </g>
    </g>
  </g>
  <g
     id="g64">
    <g
       clip-path="url(#clipPath-842518566)"
       id="g66">
      <g
         id="g68">
        <path
           d="m 14.03 12 c -0.055 3.418 -0.051 6.832 0 10.25 c 0.047 3.289 0.219 5.867 1.656 7.875 c 1.727 2.422 4.605 4.16 8.313 5.875 c 3.703 -1.715 6.582 -3.457 8.313 -5.875 c 1.434 -2.01 1.609 -4.586 1.656 -7.875 c 0.047 -3.418 0.051 -6.832 0 -10.25 m -9.969 1 c 0.551 0 1 0.449 1 1 c 0 0.551 -0.449 1 -1 1 c -0.555 0 -1 -0.449 -1 -1 c 0 -0.551 0.445 -1 1 -1 m 0 4 c 0.551 0 1 0.449 1 1 c 0 0.551 -0.449 1 -1 1 c -0.555 0 -1 -0.449 -1 -1 c 0 -0.551 0.445 -1 1 -1 m -8 4 c 0.551 0 1 0.449 1 1 c 0 0.551 -0.449 1 -1 1 c -0.555 0 -1 -0.449 -1 -1 c 0 -0.551 0.445 -1 1 -1 m 4 0 c 0.551 0 1 0.449 1 1 c 0 0.551 -0.449 1 -1 1 c -0.555 0 -1 -0.449 -1 -1 c 0 -0.551 0.445 -1 1 -1 m 4 0 c 0.551 0 1 0.449 1 1 c 0 0.551 -0.449 1 -1 1 c -0.555 0 -1 -0.449 -1 -1 c 0 -0.551 0.445 -1 1 -1 m 4 0 c 0.551 0 1 0.449 1 1 c 0 0.551 -0.449 1 -1 1 c -0.555 0 -1 -0.449 -1 -1 c 0 -0.551 0.445 -1 1 -1 m 4 0 c 0.551 0 1 0.449 1 1 c 0 0.551 -0.449 1 -1 1 c -0.555 0 -1 -0.449 -1 -1 c 0 -0.551 0.445 -1 1 -1 m -8 4 c 0.551 0 1 0.449 1 1 c 0 0.551 -0.449 1 -1 1 c -0.555 0 -1 -0.449 -1 -1 c 0 -0.551 0.445 -1 1 -1 m 0 4 c 0.551 0 1 0.449 1 1 c 0 0.551 -0.449 1 -1 1 c -0.555 0 -1 -0.449 -1 -1 c 0 -0.551 0.445 -1 1 -1 m 0 4 c 0.551 0 1 0.449 1 1 c 0 0.551 -0.449 1 -1 1 c -0.555 0 -1 -0.449 -1 -1 c 0 -0.551 0.445 -1 1 -1 m 0 0"
           fill="url(#linear0)"
           stroke="none"
           fill-rule="nonzero"
           id="path70" />
      </g>
    </g>
  </g>
</svg>
